X:1
T:James Gibb editions
T:Ye holy Angels bright (II) - Barnby
%%score [ ( 1 2 3 ) ( 4 5 6 ) ]
L:1/8
Q:1/4=160
M:4/2
K:C
V:1 treble nm="Midi_74"
V:2 treble 
V:3 treble 
V:4 bass nm="Midi_74"
V:5 bass 
V:6 bass 
V:1
"^Massive""^Richard Baxter\n(1615-91)""^66. 66. 88""^Ye holy Angels bright (II)""^Joseph Barnby\n(1838-96)" c8 x8 | %1
 c4 c4 !>!d6 c2 | c8 || c8 x8 | B4"^1" c4 !>!A6 G2 | G8 || c8 x8 | c4 c4 d6 c2 | %8
 c4"^1" c4"^1" B4 c4 | A12 B4 | B12 ||!mf!"^Sw. Org." B4 | B8 B8 | B12 x4 ||"^Gt Org." B4 x12 | %15
 c4 c4 =B4 c4 | d4 e4 c4 A4 | (G4 A4) B8 | c16 || c8 c8 |] %20
V:2
 G8 x4 x4 | G6 G2 G8 | x8 || x16 | x8 x8 | A8 || A4 A4 A6 A2 | A4 C4 B,4 C4 | x16 | B,12 x4 | %10
 x12 || x4 | [^Ge^g]8 [A^d^f]8 | [^Ge]12 G4 || A4 A4 ^G4 A4 | _B4 E4 F4 x4 | x16 | x16 | x16 || %19
 x16 |] %20
V:3
 E8 x8 | G4 E4 !>!F6 E2 | E8 || G8 x8 | G4 G4 !>!^F6 G2 | G8 || E8 x8 | F4 F4 F6 E2 | E4 E4 E4 E4 | %9
 E8 D8 | E12 || B4 | B8 B8 | B12 x4 || E4 x12 | E4 E4 E4 E4 | G4 G4 A4 F4 | E8 F8 | E16 || F8 E8 |] %20
V:4
 G,8 x8 | C4 C4 !>!B,6 C2 | C8 || C8 x8 | D4 E4 !>!C6 B,2 | B,8 || C8 x8 | A,4 A,4 A,6 C2 | %8
 C4"^1" A,4 ^G,4"^1" A,4 | C8 A,8 | ^G,12 || B,4 | %12
 B,8"^1. Ye holy Angels bright,\nWho wait at God's right hand,\nOr thro the realms of light\nFly at your Lord's command,\nAssist our song,\nOr else the theme\nToo high doth seem\nFor mortal tongue.\n\n2. Ye blessed souls at rest,\nWho ran this earthly race\nAnd now, from sin released,\nBehold your Savior's face,\nHis praises sound,\nAs in his sight\nWith sweet delight\nYe do abound." B,8 | %13
 B,12 x4 || ^G,4 x12 | A,4 A,4 ^G,4 A,4 | %16
 _B,4 B,4 A,2"^3. Ye saints, who toil below,\nAdore your heavnly King,\nAnd onward as ye go\nSome joyful anthem sing;\nTake what he gives\nAnd praise him still, \nThrough good or ill,\nWho ever lives!\n\n4. My soul, bear thou thy part,\nTriumph in God above;\nAnd with a well-tuned heart\nSing thou the songs of love!\nLet all thy days\nTill life shall end,\nWhate'er He send,\nBe filld with praise!\n" =B,2 C2 D2 | %17
 (E4 C4) D8 | C16 || A,8 G,8 |] %20
V:5
 C8 x8 | x4 x4 D6 x2 | x8 || G,8 x8 | B,4 C4 A,6 x2 | x8 || x8 x8 | C4 C4 D6 x2 | x16 | A,8 x8 | %10
 x12 || x4 | [B,,^G,E]8 [B,,^D]8 | [E,E]12 B,4 || C4 C4 B,4 C4 | D4 x4 x4 x4 | x4 x4 G,8 | G,16 | %18
 x4 x4 x4 x4 || x16 |] %20
V:6
 C,8 x8 | E,4 A,4 !>!G,6 C2 | C8 || E,8 x8 | G,4 C,4 !>!D,6 G,2 | G,8 || A,8 x8 | F,4 F,4 D,6 A,2 | %8
 A,4 C,4 E,4 A,,4 | F,8 F,8 | E,12 || B,4 | B,8 B,8 | B,12 x4 || E,4 x12 | A,4 A,4 E,4 A,4 | %16
 G,4 C,4 F,4 F,4 | G,8 G,,8 | C,16 || F,8 C,8 |] %20

